X: 2141
Q: "Strathspey."
M: C
L: 1/8
K: D
uF |\
vA<DA>uF d>FA<B | A<DA>F E>FG<B |\
ug |\
vf2ud>uf vg>ue f<d |
e/e/e f>d g>e=c>e |\
[1 f2d>f g>e f<d | e/e/e (a>g) f<dd :|\
[2 f<a e<f d>eB<d | A<FA>g f<dd |]


